icons/flowchart-24.svg

<svg width="24" height="24" viewBox="0 0 24 24" fill="none" xmlns="http://www.w3.org/2000/svg">
<path d="M8 2C9.65685 2 11 3.34315 11 5V5.75H13V5C13 3.34315 14.3431 2 16 2H19C20.6569 2 22 3.34315 22 5V8C22 9.60511 20.7394 10.9158 19.1543 10.9961L19 11H16L15.8457 10.9961C15.3475 10.9709 14.8825 10.8222 14.4775 10.583L10.582 14.4785C10.8457 14.925 11 15.4439 11 16V16.75H19.6895L17.4697 14.5303C17.1768 14.2374 17.1768 13.7626 17.4697 13.4697C17.7626 13.1768 18.2374 13.1768 18.5303 13.4697L22.0303 16.9697C22.3232 17.2626 22.3232 17.7374 22.0303 18.0303L18.5303 21.5303C18.2374 21.8232 17.7626 21.8232 17.4697 21.5303C17.1768 21.2374 17.1768 20.7626 17.4697 20.4697L19.6895 18.25H11V19C11 20.6051 9.73945 21.9158 8.1543 21.9961L8 22H5L4.8457 21.9961C3.31166 21.9184 2.08163 20.6883 2.00391 19.1543L2 19V16C2 14.3431 3.34315 13 5 13H8C8.55589 13 9.0751 13.1535 9.52148 13.417L13.416 9.52246C13.1769 9.11757 13.0291 8.65229 13.0039 8.1543L13 8V7.25H11V8C11 9.60511 9.73945 10.9158 8.1543 10.9961L8 11H5L4.8457 10.9961C3.31166 10.9184 2.08163 9.68834 2.00391 8.1543L2 8V5C2 3.34315 3.34315 2 5 2H8ZM5 14.5C4.17157 14.5 3.5 15.1716 3.5 16V19C3.5 19.8284 4.17157 20.5 5 20.5H8C8.82843 20.5 9.5 19.8284 9.5 19V16C9.5 15.1716 8.82843 14.5 8 14.5H5ZM5 3.5C4.17157 3.5 3.5 4.17157 3.5 5V8C3.5 8.82843 4.17157 9.5 5 9.5H8C8.82843 9.5 9.5 8.82843 9.5 8V5C9.5 4.17157 8.82843 3.5 8 3.5H5ZM16 3.5C15.1716 3.5 14.5 4.17157 14.5 5V8C14.5 8.82843 15.1716 9.5 16 9.5H19C19.8284 9.5 20.5 8.82843 20.5 8V5C20.5 4.17157 19.8284 3.5 19 3.5H16Z" fill="black"/>
</svg>

<svg xmlns="http://www.w3.org/2000/svg" width="24" height="24" viewBox="0 0 24 24"><path d="M8 2a3 3 0 0 1 3 3v.75h2V5a3 3 0 0 1 3-3h3a3 3 0 0 1 3 3v3a3 3 0 0 1-2.846 2.996L19 11h-3l-.154-.004a2.988 2.988 0 0 1-1.369-.413l-3.895 3.896c.264.446.418.965.418 1.521v.75h8.689l-2.219-2.22a.749.749 0 1 1 1.06-1.06l3.5 3.5a.749.749 0 0 1 0 1.06l-3.5 3.5a.749.749 0 1 1-1.06-1.06l2.219-2.22H11V19a3 3 0 0 1-2.846 2.996L8 22H5l-.154-.004a3.001 3.001 0 0 1-2.842-2.842L2 19v-3a3 3 0 0 1 3-3h3c.556 0 1.075.153 1.521.417l3.895-3.895a2.975 2.975 0 0 1-.412-1.368L13 8v-.75h-2V8a3 3 0 0 1-2.846 2.996L8 11H5l-.154-.004a3.001 3.001 0 0 1-2.842-2.842L2 8V5a3 3 0 0 1 3-3h3ZM5 14.5A1.5 1.5 0 0 0 3.5 16v3A1.5 1.5 0 0 0 5 20.5h3A1.5 1.5 0 0 0 9.5 19v-3A1.5 1.5 0 0 0 8 14.5H5Zm0-11A1.5 1.5 0 0 0 3.5 5v3A1.5 1.5 0 0 0 5 9.5h3A1.5 1.5 0 0 0 9.5 8V5A1.5 1.5 0 0 0 8 3.5H5Zm11 0A1.5 1.5 0 0 0 14.5 5v3A1.5 1.5 0 0 0 16 9.5h3A1.5 1.5 0 0 0 20.5 8V5A1.5 1.5 0 0 0 19 3.5h-3Z"/></svg>
